icons/op-alarm-16.svg

<svg width="16" height="16" viewBox="0 0 16 16" fill="none" xmlns="http://www.w3.org/2000/svg">
<g clip-path="url(#clip0_3740_125)">
<path d="M1.16253 3.11008L3.08867 1.17059C3.35462 0.902799 3.35462 0.468629 3.08867 0.200841C2.82273 -0.066947 2.39154 -0.066947 2.1256 0.200841L0.199458 2.14033C-0.0664862 2.40812 -0.0664862 2.84229 0.199458 3.11008C0.465403 3.37787 0.896585 3.37787 1.16253 3.11008Z" fill="#636C76"/>
<path d="M13.8744 0.200841C13.6085 -0.0669471 13.1773 -0.066947 12.9113 0.200841C12.6454 0.468629 12.6454 0.9028 12.9113 1.17059L14.8375 3.11008C15.1034 3.37787 15.5346 3.37787 15.8005 3.11008C16.0665 2.84229 16.0665 2.40812 15.8005 2.14033L13.8744 0.200841Z" fill="#636C76"/>
<path d="M8.19944 4.5437C8.32715 4.67229 8.3989 4.84671 8.3989 5.02857V7.76411L10.2403 8.50651C10.4026 8.57775 10.531 8.7098 10.5981 8.87469C10.6653 9.03959 10.6662 9.22436 10.6004 9.38984C10.5347 9.55534 10.4075 9.68854 10.2458 9.76122C10.0842 9.83387 9.90081 9.84037 9.73456 9.7792L7.46458 8.86491C7.33834 8.81397 7.23014 8.72613 7.15392 8.61273C7.0777 8.49931 7.03694 8.36551 7.03691 8.22857V5.02857C7.03691 4.84671 7.10866 4.67229 7.23637 4.5437C7.36408 4.4151 7.5373 4.34286 7.71791 4.34286C7.89851 4.34286 8.07173 4.4151 8.19944 4.5437Z" fill="#636C76"/>
<path fill-rule="evenodd" clip-rule="evenodd" d="M5.03487 14.7017C5.00269 14.7678 4.95928 14.8299 4.90465 14.8849L3.99666 15.7992C3.73072 16.0669 3.29954 16.0669 3.03359 15.7992C2.76765 15.5314 2.76765 15.0972 3.03359 14.8294L3.82997 14.0275C3.46675 13.7761 3.12458 13.4902 2.80853 13.172C1.44627 11.8003 0.680969 9.93984 0.680969 8C0.680969 6.06013 1.44627 4.19972 2.80853 2.82802C4.17078 1.45632 6.01839 0.685714 7.9449 0.685714C9.87139 0.685714 11.7191 1.45632 13.0813 2.82802C14.4435 4.19972 15.2088 6.06013 15.2088 8C15.2088 9.93984 14.4435 11.8003 13.0813 13.172C12.7842 13.4712 12.464 13.7418 12.1248 13.982L12.9664 14.8294C13.2324 15.0972 13.2324 15.5314 12.9664 15.7992C12.7005 16.0669 12.2693 16.0669 12.0033 15.7992L11.0953 14.8849C11.0295 14.8186 10.98 14.7421 10.9467 14.6605C10.0127 15.0873 8.99039 15.3143 7.9449 15.3143C6.93355 15.3143 5.94394 15.1019 5.03487 14.7017ZM3.7716 3.79777C2.66477 4.91227 2.04296 6.42385 2.04296 8C2.04296 9.57615 2.66477 11.0877 3.7716 12.2022C4.87842 13.3168 6.37961 13.9429 7.9449 13.9429C9.5102 13.9429 11.0114 13.3168 12.1182 12.2022C13.2251 11.0877 13.8469 9.57615 13.8469 8C13.8469 6.42385 13.2251 4.91227 12.1182 3.79777C11.0114 2.68326 9.5102 2.05714 7.9449 2.05714C6.37961 2.05714 4.87842 2.68326 3.7716 3.79777Z" fill="#636C76"/>
</g>
<defs>
<clipPath id="clip0_3740_125">
<rect width="16" height="16" fill="white"/>
</clipPath>
</defs>
</svg>

<svg xmlns="http://www.w3.org/2000/svg" width="16" height="16" viewBox="0 0 16 16"><path d="M1.163 3.11a.678.678 0 0 1-.964 0A.689.689 0 0 1 0 2.626v-.001a.69.69 0 0 1 .199-.485L2.126.201a.676.676 0 0 1 .963 0 .69.69 0 0 1 0 .97ZM13.874.201 15.8 2.14a.69.69 0 0 1 0 .97.677.677 0 0 1-.963 0l-1.926-1.939a.69.69 0 0 1 0-.97.678.678 0 0 1 .963 0ZM8.199 4.544c.128.128.2.303.2.485v2.735l1.841.743a.69.69 0 0 1 .006 1.254.675.675 0 0 1-.511.018l-2.27-.914a.68.68 0 0 1-.428-.636v-3.2a.69.69 0 0 1 .199-.485.678.678 0 0 1 .963 0Z"/><path d="M5.035 14.702a.695.695 0 0 1-.13.183l-.908.914a.677.677 0 0 1-.963 0 .69.69 0 0 1 0-.97l.796-.801A7.338 7.338 0 0 1 .681 8c0-1.94.765-3.8 2.128-5.172A7.235 7.235 0 0 1 7.945.686c1.926 0 3.774.77 5.136 2.142A7.342 7.342 0 0 1 15.209 8a7.342 7.342 0 0 1-3.084 5.982l.841.847a.69.69 0 0 1 0 .97.677.677 0 0 1-.963 0l-.908-.914a.687.687 0 0 1-.148-.225 7.22 7.22 0 0 1-5.912.042ZM3.772 3.798A5.962 5.962 0 0 0 2.043 8c0 1.576.622 3.088 1.729 4.202a5.878 5.878 0 0 0 4.173 1.741 5.88 5.88 0 0 0 4.173-1.741A5.962 5.962 0 0 0 13.847 8a5.962 5.962 0 0 0-1.729-4.202 5.88 5.88 0 0 0-4.173-1.741 5.878 5.878 0 0 0-4.173 1.741Z"/></svg>
